crowdsource-fe/public/images/asr_contribute_icon.svg

<svg width="130" height="130" viewBox="0 0 130 130" fill="none" xmlns="http://www.w3.org/2000/svg">
<circle cx="65" cy="65" r="65" fill="#42B2C6"/>
<mask id="mask0" style="mask-type:alpha" maskUnits="userSpaceOnUse" x="0" y="0" width="130" height="130">
<circle cx="65" cy="65" r="65" fill="#69CBDC"/>
</mask>
<g mask="url(#mask0)">
<path d="M30.8048 -2.09984L30.8062 -2.09786L31.1312 -1.61882C31.3442 -1.30492 31.6567 -0.844054 32.0552 -0.256069C32.852 0.919894 33.9924 2.60437 35.3669 4.63865C38.1157 8.70708 41.8009 14.1752 45.5463 19.7733C49.291 25.3706 53.0981 31.101 56.0895 35.6928C57.5848 37.9881 58.8794 40.0037 59.8617 41.5779C60.8239 43.1201 61.5349 44.3144 61.8145 44.9203C61.9158 45.1397 61.9526 45.3834 61.9206 45.6229C61.7932 46.5784 61.267 47.4123 60.6389 48.1063C60.0014 48.8106 59.1703 49.4687 58.2555 50.076C56.4246 51.2913 54.0891 52.4129 51.8306 53.3607C49.5614 54.3129 47.3189 55.1107 45.6478 55.6694C45.076 55.8606 44.5697 56.0242 44.1507 56.1569C44.386 56.7918 44.7024 57.6274 45.0744 58.5664C45.906 60.6652 46.9994 63.2383 48.0785 65.2423C48.6695 66.3399 48.3315 67.4164 47.743 68.2073C47.1889 68.9521 46.3183 69.6064 45.3694 70.1789C43.4436 71.3407 40.721 72.4411 38.0157 73.3829C35.5567 74.2391 33.0467 74.9862 31.0364 75.5476C31.7705 75.7955 32.5665 76.0666 33.392 76.3512C36.8438 77.5415 40.8898 78.9959 43.0296 79.9835C45.2575 81.0117 46.3574 82.273 46.4366 83.6987C46.4734 84.3607 46.2701 84.8967 46.0778 85.2478C45.9806 85.4253 45.8805 85.5665 45.8006 85.6677C45.7603 85.7188 45.7242 85.7609 45.6947 85.7938L45.6772 85.8131C45.6672 85.8251 45.6513 85.8446 45.63 85.8715C45.5832 85.9308 45.5109 86.0255 45.4216 86.1531C45.2425 86.409 44.9973 86.7934 44.7507 87.2867C44.2556 88.2768 43.7701 89.6737 43.7701 91.3368C43.7701 91.8567 43.7831 92.5048 43.798 93.2433C43.8351 95.0878 43.8835 97.4965 43.7686 99.8816C43.6095 103.182 43.1328 106.832 41.6692 109.211C41.3056 109.802 40.7008 110.16 40.1645 110.394C39.5962 110.641 38.9094 110.831 38.1585 110.982C36.6524 111.284 34.6999 111.465 32.4956 111.563C28.0752 111.76 22.4529 111.628 16.9454 111.369C11.4303 111.109 5.99872 110.72 1.94807 110.396C-0.077858 110.233 -1.75974 110.087 -2.93561 109.982C-3.52358 109.929 -3.98511 109.887 -4.29997 109.857C-4.4574 109.842 -4.57817 109.831 -4.65975 109.823L-4.72243 109.817H-33.0192C-33.7231 109.817 -34.2937 109.247 -34.2937 108.543V-0.109304C-34.2937 -0.803113 -33.7387 -1.36947 -33.045 -1.38355L29.7246 -2.65806C30.1559 -2.66682 30.5624 -2.45676 30.8048 -2.09984Z" fill="white"/>
<path fill-rule="evenodd" clip-rule="evenodd" d="M71.9571 54.9619C71.1551 55.7639 71.1997 57.0662 71.9005 57.958C73.5743 60.0881 74.5726 62.7741 74.5726 65.6932C74.5726 68.4095 73.7082 70.9239 72.2396 72.9763C71.5992 73.8713 71.5877 75.124 72.3658 75.9021C73.1502 76.6864 74.4338 76.6897 75.1135 75.8132C77.2818 73.0168 78.5726 69.5057 78.5726 65.6932C78.5726 61.6117 77.0932 57.8756 74.6415 54.992C73.9474 54.1757 72.7148 54.2042 71.9571 54.9619ZM79.2626 79.9839C78.5584 80.8316 78.5528 82.0891 79.3321 82.8683C80.115 83.6513 81.3915 83.6539 82.1105 82.8119C86.0443 78.2047 88.4193 72.2265 88.4193 65.6935C88.4193 58.9044 85.8544 52.7144 81.6407 48.0396C80.9139 47.2333 79.6673 47.2518 78.8997 48.0193C78.106 48.813 78.1301 50.0997 78.8703 50.9436C82.325 54.8818 84.4193 60.0431 84.4193 65.6935C84.4193 71.1268 82.4829 76.1077 79.2626 79.9839ZM86.7482 87.4644C86.0187 88.2915 86.0152 89.5515 86.795 90.3313C87.5774 91.1136 88.8507 91.1157 89.5879 90.2907C95.4236 83.7602 98.9712 75.1415 98.9712 65.6942C98.9712 55.9962 95.2328 47.1714 89.1184 40.5822C88.3761 39.7822 87.1235 39.7956 86.3518 40.5673C85.5618 41.3573 85.5779 42.6376 86.3324 43.4615C91.6975 49.3195 94.9712 57.1246 94.9712 65.6942C94.9712 74.0403 91.8661 81.661 86.7482 87.4644Z" fill="white"/>
</g>
</svg>

<svg xmlns="http://www.w3.org/2000/svg" width="130" height="130" fill="none" xmlns:v="https://vecta.io/nano"><circle cx="65" cy="65" r="65" fill="#42b2c6"/><mask id="A" maskUnits="userSpaceOnUse" x="0" y="0" width="130" height="130" mask-type="alpha"><circle cx="65" cy="65" r="65" fill="#69cbdc"/></mask><g mask="url(#A)"><path d="M30.805-2.1l.001.002.325.479.924 1.363 3.312 4.895 10.179 15.135 10.543 15.92 3.772 5.885 1.953 3.342c.101.219.138.463.106.703-.127.956-.654 1.789-1.282 2.483-.638.704-1.469 1.362-2.383 1.97-1.831 1.215-4.166 2.337-6.425 3.285l-6.183 2.309-1.497.487.924 2.41 3.004 6.676c.591 1.098.253 2.174-.335 2.965-.554.745-1.425 1.399-2.374 1.972-1.926 1.162-4.648 2.262-7.354 3.204l-6.979 2.165 2.356.804c3.452 1.19 7.498 2.645 9.638 3.632 2.228 1.028 3.328 2.289 3.407 3.715a2.89 2.89 0 0 1-.359 1.549c-.097.177-.197.319-.277.42a2.61 2.61 0 0 1-.106.126l-.017.019a3.14 3.14 0 0 0-.047.058 6.14 6.14 0 0 0-.208.282 9.05 9.05 0 0 0-.671 1.134c-.495.99-.981 2.387-.981 4.05l.028 1.907c.037 1.844.085 4.253-.029 6.638-.159 3.3-.636 6.95-2.099 9.329-.364.591-.968.949-1.505 1.183-.568.247-1.255.437-2.006.588-1.506.302-3.459.483-5.663.581-4.42.197-10.043.065-15.55-.194-5.515-.26-10.947-.649-14.997-.973l-4.884-.414-1.364-.125-.36-.034-.063-.006h-28.297c-.704 0-1.275-.57-1.275-1.274V-.109c0-.694.555-1.26 1.249-1.274l62.77-1.275c.431-.009.838.201 1.08.558z" fill="#fff"/><path fill-rule="evenodd" d="M71.957 54.962c-.802.802-.757 2.104-.057 2.996 1.674 2.13 2.672 4.816 2.672 7.735a12.47 12.47 0 0 1-2.333 7.283c-.64.895-.652 2.148.126 2.926.784.784 2.068.788 2.748-.089a16.46 16.46 0 0 0 3.459-10.12c0-4.082-1.479-7.818-3.931-10.701-.694-.816-1.927-.788-2.684-.03zm7.306 25.022c-.704.848-.71 2.105.069 2.884s2.059.786 2.778-.056a26.27 26.27 0 0 0 6.309-17.118 26.28 26.28 0 0 0-6.779-17.654c-.727-.806-1.973-.788-2.741-.02-.794.794-.77 2.08-.029 2.924a22.29 22.29 0 0 1 5.549 14.75c0 5.433-1.936 10.414-5.157 14.29zm7.486 7.48c-.73.827-.733 2.087.047 2.867s2.056.784 2.793-.041c5.836-6.531 9.383-15.149 9.383-24.597 0-9.698-3.738-18.523-9.853-25.112-.742-.8-1.995-.787-2.767-.015-.79.79-.774 2.07-.019 2.894 5.365 5.858 8.639 13.663 8.639 22.233a32.8 32.8 0 0 1-8.223 21.77z" fill="#fff"/></g></svg>
